_site/images/homepage/software.svg

<svg fill="none" height="80" viewBox="0 0 80 80" width="80" xmlns="http://www.w3.org/2000/svg"><rect fill="#00769d" height="80" rx="25" width="80"/><g fill="#fff"><path d="m24.9526 54.1771h30.6091c.5262 0 .9526-.4264.9526-.9526 0-1.5484 0-25.0579 0-26.6718 0-.5262-.4264-.9526-.9526-.9526h-30.6091c-.5262 0-.9526.4264-.9526.9526v26.6718c0 .5262.4264.9526.9526.9526zm.9525-26.6719h28.704v5.7154h-28.704zm0 7.6206h28.704v17.1462h-28.704z"/><path d="m35.2156 41.1204c-.3718-.3721-.9751-.3721-1.347 0l-3.8102 3.8102c-.3721.3719-.3721.9749 0 1.347l3.8102 3.8103c.3719.3721.9749.3721 1.347 0s.3721-.9751 0-1.347l-3.1365-3.1368 3.1365-3.1367c.3721-.3719.3721-.9752 0-1.347z"/><path d="m42.5884 40.9418c-.4703-.2352-1.0426-.0444-1.278.4259l-3.8103 7.6205c-.2351.4706-.0444 1.0429.4259 1.2781.4716.2359 1.0434.0436 1.2781-.426l3.8102-7.6205c.2355-.4703.0447-1.0426-.4259-1.278z"/><path d="m46.6466 41.1204c-.3719-.3721-.9752-.3721-1.347 0-.3721.3718-.3721.9749 0 1.347l3.1365 3.1367-3.1365 3.1368c-.3721.3719-.3721.9749 0 1.347.3718.3721.9751.3721 1.347 0l3.8102-3.8103c.3721-.3721.3721-.9751 0-1.347z"/><path d="m51.6872 37.0308h-22.8616c-.5261 0-.9526.4264-.9526.9525 0 .5262.4265.9526.9526.9526h22.8616c.5262 0 .9526-.4264.9526-.9526 0-.5261-.4264-.9525-.9526-.9525z"/><path d="m45.0204 30.363c0 .5261-.4265.9525-.9526.9525s-.9526-.4264-.9526-.9525c0-.5262.4265-.9526.9526-.9526s.9526.4264.9526.9526z"/><path d="m48.8299 30.363c0 .5261-.4264.9525-.9525.9525-.5262 0-.9526-.4264-.9526-.9525 0-.5262.4264-.9526.9526-.9526.5261 0 .9525.4264.9525.9526z"/><path d="m52.6405 30.363c0 .5261-.4264.9525-.9526.9525-.5261 0-.9525-.4264-.9525-.9525 0-.5262.4264-.9526.9525-.9526.5262 0 .9526.4264.9526.9526z"/><path d="m38.3513 29.4104h-9.5257c-.5261 0-.9526.4264-.9526.9526 0 .5261.4265.9525.9526.9525h9.5257c.5261 0 .9525-.4264.9525-.9525 0-.5262-.4264-.9526-.9525-.9526z"/></g></svg>

<svg width="80" height="80" viewBox="0 0 80 80" fill="none" xmlns="http://www.w3.org/2000/svg">
<rect width="80" height="80" rx="25" fill="#00769D"/>
<path d="M24.9526 54.1771H55.5617C56.0879 54.1771 56.5143 53.7507 56.5143 53.2245C56.5143 51.6761 56.5143 28.1666 56.5143 26.5527C56.5143 26.0265 56.0879 25.6001 55.5617 25.6001H24.9526C24.4264 25.6001 24 26.0265 24 26.5527V53.2245C24 53.7507 24.4264 54.1771 24.9526 54.1771ZM25.9051 27.5052H54.6091V33.2206H25.9051V27.5052ZM25.9051 35.1258H54.6091V52.272H25.9051V35.1258Z" fill="white"/>
<path d="M35.2156 41.1204C34.8438 40.7483 34.2405 40.7483 33.8686 41.1204L30.0584 44.9306C29.6863 45.3025 29.6863 45.9055 30.0584 46.2776L33.8686 50.0879C34.2405 50.46 34.8435 50.46 35.2156 50.0879C35.5877 49.7158 35.5877 49.1128 35.2156 48.7409L32.0791 45.6041L35.2156 42.4674C35.5877 42.0955 35.5877 41.4922 35.2156 41.1204Z" fill="white"/>
<path d="M42.5884 40.9418C42.1181 40.7066 41.5458 40.8974 41.3104 41.3677L37.5001 48.9882C37.265 49.4588 37.4557 50.0311 37.926 50.2663C38.3976 50.5022 38.9694 50.3099 39.2041 49.8403L43.0143 42.2198C43.2498 41.7495 43.059 41.1772 42.5884 40.9418Z" fill="white"/>
<path d="M46.6466 41.1204C46.2747 40.7483 45.6714 40.7483 45.2996 41.1204C44.9275 41.4922 44.9275 42.0953 45.2996 42.4674L48.4361 45.6041L45.2996 48.7409C44.9275 49.1128 44.9275 49.7158 45.2996 50.0879C45.6714 50.46 46.2747 50.46 46.6466 50.0879L50.4568 46.2776C50.8289 45.9055 50.8289 45.3025 50.4568 44.9306L46.6466 41.1204Z" fill="white"/>
<path d="M51.6872 37.0308H28.8256C28.2995 37.0308 27.873 37.4572 27.873 37.9833C27.873 38.5095 28.2995 38.9359 28.8256 38.9359H51.6872C52.2134 38.9359 52.6398 38.5095 52.6398 37.9833C52.6398 37.4572 52.2134 37.0308 51.6872 37.0308Z" fill="white"/>
<path d="M45.0204 30.363C45.0204 30.8891 44.5939 31.3155 44.0678 31.3155C43.5417 31.3155 43.1152 30.8891 43.1152 30.363C43.1152 29.8368 43.5417 29.4104 44.0678 29.4104C44.5939 29.4104 45.0204 29.8368 45.0204 30.363Z" fill="white"/>
<path d="M48.8299 30.363C48.8299 30.8891 48.4035 31.3155 47.8774 31.3155C47.3512 31.3155 46.9248 30.8891 46.9248 30.363C46.9248 29.8368 47.3512 29.4104 47.8774 29.4104C48.4035 29.4104 48.8299 29.8368 48.8299 30.363Z" fill="white"/>
<path d="M52.6405 30.363C52.6405 30.8891 52.2141 31.3155 51.6879 31.3155C51.1618 31.3155 50.7354 30.8891 50.7354 30.363C50.7354 29.8368 51.1618 29.4104 51.6879 29.4104C52.2141 29.4104 52.6405 29.8368 52.6405 30.363Z" fill="white"/>
<path d="M38.3513 29.4104H28.8256C28.2995 29.4104 27.873 29.8368 27.873 30.363C27.873 30.8891 28.2995 31.3155 28.8256 31.3155H38.3513C38.8774 31.3155 39.3038 30.8891 39.3038 30.363C39.3038 29.8368 38.8774 29.4104 38.3513 29.4104Z" fill="white"/>
</svg>
